Sources/FrostedUI/Resources/Icons.xcassets/webcamOn20.imageset/webcam-on-20.svg

<svg width="20" height="20" viewBox="0 0 20 20" fill="none" xmlns="http://www.w3.org/2000/svg" data-fui-icon="true">
  <path
    d="M10.3125 2.6875C12.1902 2.6875 13.7973 3.83722 14.4717 5.4707L15.6328 4.41211C16.7559 3.38774 18.5618 4.18382 18.5625 5.7041V14.2949C18.5625 15.816 16.756 16.6124 15.6328 15.5869L14.4717 14.5273C13.7977 16.1617 12.1909 17.3125 10.3125 17.3125H5.9375C3.45224 17.3125 1.4376 15.2977 1.4375 12.8125V7.1875C1.43763 4.70233 3.4523 2.6875 5.9375 2.6875H10.3125ZM5.9375 4.1875C4.28073 4.1875 2.93763 5.53076 2.9375 7.1875V12.8125L2.94141 12.9668C3.02179 14.5519 4.33248 15.8125 5.9375 15.8125H10.3125C11.8493 15.8125 13.1159 14.6558 13.29 13.165L13.3125 13.0498C13.4505 12.5309 14.0774 12.2587 14.5488 12.5791L14.6475 12.6572L16.6445 14.4795C16.8051 14.6258 17.0625 14.5121 17.0625 14.2949V5.7041C17.062 5.48761 16.8049 5.37392 16.6445 5.51953L14.6475 7.3418C14.1378 7.80695 13.3639 7.46551 13.29 6.83398C13.1155 5.34379 11.8491 4.1875 10.3125 4.1875H5.9375Z"
    fill="currentColor"
  />
</svg>

<svg xmlns="http://www.w3.org/2000/svg" width="20" height="20" fill="none" data-fui-icon="true" viewBox="0 0 20 20"><path fill="currentColor" d="M10.313 2.688a4.5 4.5 0 0 1 4.159 2.783l1.16-1.059c1.124-1.024 2.93-.228 2.93 1.292v8.59c0 1.522-1.806 2.318-2.93 1.293l-1.16-1.06a4.5 4.5 0 0 1-4.16 2.786H5.939a4.5 4.5 0 0 1-4.5-4.5V7.187a4.5 4.5 0 0 1 4.5-4.5zm-4.376 1.5a3 3 0 0 0-3 3v5.625l.004.154a3 3 0 0 0 2.997 2.845h4.375a3 3 0 0 0 2.977-2.647l.023-.115c.137-.52.764-.791 1.236-.47l.099.077 1.997 1.822a.25.25 0 0 0 .418-.184v-8.59a.25.25 0 0 0-.418-.185l-1.997 1.822c-.51.465-1.284.124-1.358-.508a3 3 0 0 0-2.977-2.646z"/></svg>
